icons-dark/status/22/camera-off.svg

<svg viewBox="0 0 22 22" xmlns="http://www.w3.org/2000/svg"><style type="text/css" id="current-color-scheme">.ColorScheme-Text{color:#eff0f1;}.ColorScheme-NegativeText{color:#da4453;}</style><path d="m11 4a6 6 0 0 0 -3.6894531 1.2929688l.703125.703125a5 5 0 0 1 2.9863281-.9960938 5 5 0 0 1 3.091797 1.0839844 5 5 0 0 1 .199219.1640625 5 5 0 0 1 .183593.171875 5 5 0 0 1 .183594.1875 5 5 0 0 1 .177735.2011719 5 5 0 0 1 .15625.1914062h1.197265 1.810547v1h-1v4h1v1h-1.8125-1.171875l1 1h1.984375c.554 0 1-.446 1-1v-6c0-.554-.446-1-1-1h-2.537109a6 6 0 0 0 -4.462891-2zm-7.0136719 2.0019531c-.5473276.0076274-.9863281.4488411-.9863281.9980469v6c0 .554.446 1 1 1h2.5371094a6 6 0 0 0 4.4628906 2 6 6 0 0 0 2.449219-.535156l-.763672-.763672a5 5 0 0 1 -1.685547.298828 5 5 0 0 1 -3.0917969-1.083984 5 5 0 0 1 -.1992187-.164063 5 5 0 0 1 -.1835938-.171875 5 5 0 0 1 -.1835937-.1875 5 5 0 0 1 -.1777344-.201172 5 5 0 0 1 -.15625-.191406h-1.1972656-1.8105469v-1h1v-4h-1v-1h.984375zm7.0136719 9.9980469c-.554 0-1 .446-1 1 0 .028.013325.052078.015625.080078-1.6215174.2312-3.015625.919922-3.015625.919922v1h8v-1s-1.394113-.688822-3.015625-.919922c.0023-.028.015625-.052078.015625-.080078 0-.554-.446-1-1-1zm0-9a3 3 0 0 0 -1.5488281.4355469l4.1132811 4.1132811a3 3 0 0 0 .435547-1.548828 3 3 0 0 0 -3-3zm-3 3.015625a3 3 0 0 0 2.984375 2.984375z" style="fill:currentColor;fill-opacity:1;stroke:none" class="ColorScheme-Text"/><path d="m-.49999997 4.7426407h1v21.6274173h-1z" style="fill:currentColor;fill-opacity:1;stroke:none" class="ColorScheme-NegativeText" transform="matrix(.70710678 -.70710678 .70710678 .70710678 0 0)"/></svg>

<svg xmlns="http://www.w3.org/2000/svg" viewBox="0 0 22 22">
  <defs id="defs3051">
    <style type="text/css" id="current-color-scheme">
      .ColorScheme-Text {
        color:#eff0f1;
      }
      .ColorScheme-NegativeText {
        color:#da4453;
      }
      </style>
  </defs>
  <path 
     style="fill:currentColor;fill-opacity:1;stroke:none" 
     d="M 11 4 A 6 6 0 0 0 6.546875 6 L 4 6 C 3.446 6 3 6.446 3 7 L 3 13 C 3 13.554 3.446 14 4 14 L 6.5371094 14 A 6 6 0 0 0 11 16 A 6 6 0 0 0 15.453125 14 L 18 14 C 18.554 14 19 13.554 19 13 L 19 7 C 19 6.446 18.554 6 18 6 L 15.462891 6 A 6 6 0 0 0 11 4 z M 11 16 C 10.446 16 10 16.446 10 17 C 10 17.028 10.013325 17.052078 10.015625 17.080078 C 8.3941076 17.311278 7 18 7 18 L 7 19 L 15 19 L 15 18 C 15 18 13.605887 17.311178 11.984375 17.080078 C 11.986675 17.052078 12 17.028 12 17 C 12 16.446 11.554 16 11 16 z M 11 5 A 5 5 0 0 1 14.091797 6.0839844 A 5 5 0 0 1 14.291016 6.2480469 A 5 5 0 0 1 14.474609 6.4199219 A 5 5 0 0 1 14.658203 6.6074219 A 5 5 0 0 1 14.835938 6.8085938 A 5 5 0 0 1 14.992188 7 L 16.189453 7 L 18 7 L 18 8 L 17 8 L 17 12 L 18 12 L 18 13 L 16.1875 13 L 14.992188 13 A 5 5 0 0 1 13.990234 14 A 5 5 0 0 1 11 15 A 5 5 0 0 1 7.9082031 13.916016 A 5 5 0 0 1 7.7089844 13.751953 A 5 5 0 0 1 7.5253906 13.580078 A 5 5 0 0 1 7.3417969 13.392578 A 5 5 0 0 1 7.1640625 13.191406 A 5 5 0 0 1 7.0078125 13 L 5.8105469 13 L 4 13 L 4 12 L 5 12 L 5 8 L 4 8 L 4 7 L 5.8125 7 L 7.0078125 7 A 5 5 0 0 1 7.328125 6.6152344 A 5 5 0 0 1 8.0097656 6 A 5 5 0 0 1 11 5 z "
     class="ColorScheme-Text"/>
  <path
     style="fill:currentColor;fill-opacity:1;stroke:none" 
     d="M 8 9 L 8 11 L 14 11 L 14 9 L 8 9 z "
     class="ColorScheme-NegativeText"
     />
</svg>
